wp-expand-tabs-free/admin/img/tabs-alignment/horizontal-bottom/horizontal-justified.svg

<svg width="120" height="92" viewBox="0 0 120 92" fill="none" xmlns="http://www.w3.org/2000/svg">
<rect x="1" y="1" width="118" height="90" rx="3" fill="white"/>
<path d="M44 66H43V67V74C43 74.4997 42.9979 74.7738 42.9723 74.964C42.972 74.9665 42.9716 74.9689 42.9713 74.9713C42.9689 74.9716 42.9665 74.972 42.964 74.9723C42.7738 74.9979 42.4997 75 42 75H22C21.5003 75 21.2262 74.9979 21.036 74.9723C21.0335 74.972 21.0311 74.9716 21.0287 74.9713C21.0284 74.9689 21.028 74.9665 21.0277 74.964C21.0021 74.7738 21 74.4997 21 74V18C21 17.5003 21.0021 17.2262 21.0277 17.036C21.028 17.0335 21.0284 17.0311 21.0287 17.0287C21.0311 17.0284 21.0335 17.028 21.036 17.0277C21.2262 17.0021 21.5003 17 22 17H98C98.4997 17 98.7738 17.0021 98.964 17.0277C98.9665 17.028 98.9689 17.0284 98.9713 17.0287C98.9716 17.0311 98.972 17.0335 98.9723 17.036C98.9979 17.2262 99 17.5003 99 18V65C99 65.4997 98.9979 65.7738 98.9723 65.964C98.972 65.9665 98.9716 65.9689 98.9713 65.9713C98.9689 65.9716 98.9665 65.972 98.964 65.9723C98.7738 65.9979 98.4997 66 98 66H44Z" fill="white" stroke="#8796A1" stroke-width="2"/>
<path d="M48 67C48 66.0572 48 65.5858 48.2929 65.2929C48.5858 65 49.0572 65 50 65H70C70.9428 65 71.4142 65 71.7071 65.2929C72 65.5858 72 66.0572 72 67V74C72 74.9428 72 75.4142 71.7071 75.7071C71.4142 76 70.9428 76 70 76H50C49.0572 76 48.5858 76 48.2929 75.7071C48 75.4142 48 74.9428 48 74V67Z" fill="#8796A1"/>
<path d="M76 67C76 66.0572 76 65.5858 76.2929 65.2929C76.5858 65 77.0572 65 78 65H98C98.9428 65 99.4142 65 99.7071 65.2929C100 65.5858 100 66.0572 100 67V74C100 74.9428 100 75.4142 99.7071 75.7071C99.4142 76 98.9428 76 98 76H78C77.0572 76 76.5858 76 76.2929 75.7071C76 75.4142 76 74.9428 76 74V67Z" fill="#8796A1"/>
<rect x="1" y="1" width="118" height="90" rx="3" stroke="#CCCCCC" stroke-width="2"/>
</svg>

<svg xmlns="http://www.w3.org/2000/svg" width="120" height="92" fill="none"><g fill="#fff"><rect x="1" y="1" width="118" height="90" rx="3"/><path d="M44 66h-1v1 7l-.028.964c-.198.034-.473.036-.972.036H21c-.5 0-.774-.002-.964-.028C20.002 74.774 20 74.5 20 74V17l.028-.964c.198-.034.473-.036.972-.036h77l.964.028c.034.198.036.473.036.972v48l-.028.964c-.199.034-.473.036-.972.036H44z" stroke="#8796a1" stroke-width="2"/></g><path d="M48 67c0-.943 0-1.414.293-1.707S49.057 65 50 65h20c.943 0 1.414 0 1.707.293S72 66.057 72 67v7c0 .943 0 1.414-.293 1.707S70.943 76 70 76H50c-.943 0-1.414 0-1.707-.293S48 74.943 48 74v-7zm28 0c0-.943 0-1.414.352-1.707S77.269 65 78.4 65h19.2c1.131 0 1.697 0 2.049.293S100 66.057 100 67v7c0 .943 0 1.414-.352 1.707S98.731 76 97.6 76H78.4c-1.131 0-1.697 0-2.049-.293S76 74.943 76 74v-7z" fill="#8796a1"/><rect x="1" y="1" width="118" height="90" rx="3" stroke="#ccc" stroke-width="2"/></svg>
